symbols/web/devices_fold/materialsymbolsoutlined/devices_fold_wght700fill1_40px.svg

<svg xmlns="http://www.w3.org/2000/svg" height="40" width="40"><path d="M20.792 35.5q-1.625 0-2.73-1.083-1.104-1.084-1.104-2.709V7.625q0-1.208.646-2.292.646-1.083 1.729-1.625l3.75-1.791q1.625-.792 3.355-.146 1.729.646 2.104 2.354V4.5h4.291q1.625 0 2.729 1.083 1.105 1.084 1.105 2.709v23.416q0 1.625-1.105 2.709-1.104 1.083-2.729 1.083Zm3.875-3.792h8.166V8.292h-4.25v19.791q0 .959-.479 1.667-.479.708-1.479 1.125ZM3.333 8.292V4.5h3.834v3.792Zm0 27.208v-3.792h3.834V35.5Zm0-6.792v-3.791h3.834v3.791Zm0-6.791v-3.834h3.834v3.834Zm0-6.834v-3.791h3.834v3.791Zm6.792-6.791V4.5H14v3.792Zm0 27.208v-3.792H14V35.5Z"/></svg>

<svg xmlns="http://www.w3.org/2000/svg" height="40" width="40"><path d="M20.792 35.5Q19.167 35.5 18.062 34.417Q16.958 33.333 16.958 31.708V7.625Q16.958 6.417 17.604 5.333Q18.25 4.25 19.333 3.708L23.083 1.917Q24.708 1.125 26.438 1.771Q28.167 2.417 28.542 4.125V4.5H32.833Q34.458 4.5 35.562 5.583Q36.667 6.667 36.667 8.292V31.708Q36.667 33.333 35.562 34.417Q34.458 35.5 32.833 35.5ZM24.667 31.708Q24.667 31.708 24.667 31.708Q24.667 31.708 24.667 31.708H32.833Q32.833 31.708 32.833 31.708Q32.833 31.708 32.833 31.708V8.292Q32.833 8.292 32.833 8.292Q32.833 8.292 32.833 8.292H28.583V28.083Q28.583 29.042 28.104 29.75Q27.625 30.458 26.625 30.875ZM3.333 8.292V4.5H7.167V8.292ZM3.333 35.5V31.708H7.167V35.5ZM3.333 28.708V24.917H7.167V28.708ZM3.333 21.917V18.083H7.167V21.917ZM3.333 15.083V11.292H7.167V15.083ZM10.125 8.292V4.5H14V8.292ZM10.125 35.5V31.708H14V35.5Z"/></svg>
